X:1
T:Title
%%score 1 2
L:1/8
Q:1/4=80
M:4/4
K:G
V:1 treble nm="Strings 1, Treble"
V:2 bass nm="Strings 1, Bass"
V:1
 [B,G]2 [B,D]>[B,D] [B,D]2 [B,D]2 | [B,D]6 z2 | [CE]2 [CE]>[CE] [CD]2 [CF]2 | [CF]6 z2 | %4
w: 1.~Hushed~ is~ the~ wood bird's~|note,~|si lent~ her~ song~ of~|glee,~|
 [B,G]2 [DG]>[DG] [EG]2 [CE]2 | [B,D]6 z2 | [DB]2 [DB]>[DB] [DB]2 [DA]2 | [DG]6 z2 | %8
w: Shroud ed~ in~ gloom~ the~|sun,~|shak ing~ is~ Cal va|ry;~|
 [EG]2 [EG]>[EG] [EG]2 [Ge]2 | [Gd]6 z2 | [Fd]2 [FA]>[GB] [Ac]2 [Fd]2 | [GB]6 z2 | %12
w: Mute~ are~ the~ an gel~|hosts,~|awed~ by~ the~ sight~ they~|see,~|
 [GB]2 [GB]>[GB] [GA]2 [GB]2 | [Gc]6 z2 | [FA]2 [FA]>[FA] [GB]2 [DA]2 |[M:3/4] [DG]6 | %16
w: The~ might y~ Son~ of~|God~|dies~ for~ hu man i|ty.~|
 [DG]2 [EG]4 | [CE]2 [B,D]4 | [DB]2 [DB]4 | [CA]2 [B,G]4 | [DG]2 [EG]4 | [CE]2 [B,D]4 | %22
w: ||||||
 [CA]2[Q:1/4=80] [B,G]4-[Q:1/4=12] | [B,G]2 z2 z2 |] %24
w: ||
V:2
 [G,,D,]2 [G,,G,]>[G,,G,] [G,,G,]2 [G,,G,]2 | [G,,G,]6 z2 | [C,G,]2 [C,G,]>[C,G,] [D,F,]2 [D,A,]2 | %3
 [D,A,]6 z2 | [G,,G,]2 [G,,B,]>[G,,B,] [C,C]2 [C,G,]2 | [G,,G,]6 z2 | %6
 [D,G,]2 [D,G,]>[D,G,] [D,G,]2 [D,C]2 | [G,,G,B,]6 z2 | [C,C]2 [C,C]>[C,C] [C,C]2 [C,C]2 | %9
 [G,B,]6 z2 | [D,A,]2 [D,D]>[D,D] [D,D]2 [D,D]2 | [G,D]6 z2 | [G,D]2 [G,D]>[=F,D] [E,^C]2 [D,D]2 | %13
 [C,E]6 z2 | [D,D]2 [D,D]>[D,D] [D,D]2 [D,C]2 |[M:3/4] [G,,G,B,]6 | [G,,B,]2 [C,C]4 | %17
 [C,G,]2 [G,,G,]4 | G,2 [D,G,]4 | [D,F,]2 [E,G,]4 | [B,,G,]2 [C,G,]4 | [C,G,]2 [D,G,]4 | %22
 [D,F,]2 [G,,G,]4- | [G,,G,]2 z2 z2 |] %24

